; generated by PrusaSlicer 2.2.0+win64 on 2020-03-29 at 21:38:07 UTC

; 

; external perimeters extrusion width = 0.45mm
; perimeters extrusion width = 0.45mm
; infill extrusion width = 0.45mm
; solid infill extrusion width = 0.45mm
; top infill extrusion width = 0.40mm
; first layer extrusion width = 0.42mm

M73 P0 R23
M73 Q0 S23
M201 X1000 Y1000 Z1000 E5000 ; sets maximum accelerations, mm/sec^2
M203 X200 Y200 Z12 E120 ; sets maximum feedrates, mm/sec
M204 P1250 R1250 T1250 ; sets acceleration (P, T) and retract acceleration (R), mm/sec^2
M205 X8.00 Y8.00 Z0.40 E4.50 ; sets the jerk limits, mm/sec
M205 S0 T0 ; sets the minimum extruding and travel feed rate, mm/sec
M107
M862.3 P "MK3S" ; printer model check
M862.1 P0.4 ; nozzle diameter check
M115 U3.8.1 ; tell printer latest fw version
G90 ; use absolute coordinates
M83 ; extruder relative mode
M104 S240 ; set extruder temp
M140 S85 ; set bed temp
M190 S85 ; wait for bed temp
M109 S240 ; wait for extruder temp
G28 W ; home all without mesh bed level
G80 ; mesh bed leveling
G1 Y-3.0 F1000.0 ; go outside print area
G92 E0.0
G1 X60.0 E9.0 F1000.0 ; intro line
M73 Q0 S23
M73 P0 R23
G1 X100.0 E12.5 F1000.0 ; intro line
G92 E0.0
M221 S95
G21 ; set units to millimeters
G90 ; use absolute coordinates
M83 ; use relative distances for extrusion
M900 K45 ; Filament gcode
;BEFORE_LAYER_CHANGE
G92 E0.0
;0.2


G1 E-1.40000 F2100.00000
G1 Z0.200 F10800.000
;AFTER_LAYER_CHANGE
;0.2
G1 Z0.400
G1 X94.329 Y96.174
G1 Z0.200
G1 E1.40000 F2100.00000
M204 S1000
G1 F1200.000
G1 X96.303 Y94.649 E0.07822
G1 X98.392 Y93.613 E0.07311
G1 X100.087 Y93.115 E0.05538
G1 X104.353 Y93.026 E0.13380
G1 X125.489 Y94.215 E0.66374
G1 X127.800 Y94.567 E0.07329
G1 X129.840 Y95.345 E0.06844
G1 X131.457 Y96.339 E0.05952
G1 X132.995 Y97.736 E0.06516
G1 X134.259 Y99.438 E0.06647
G1 X135.272 Y101.652 E0.07633
G1 X135.720 Y103.657 E0.06442
G1 X135.782 Y105.689 E0.06376
G1 X135.464 Y107.689 E0.06350
G1 X134.712 Y109.722 E0.06796
G1 X133.770 Y111.309 E0.05786
G1 X132.505 Y112.758 E0.06032
G1 X130.578 Y114.236 E0.07614
G1 X128.521 Y115.213 E0.07140
G1 X126.540 Y115.692 E0.06388
G1 X103.244 Y116.628 E0.73102
G1 X101.305 Y116.587 E0.06082
G1 X99.411 Y116.219 E0.06049
G1 X97.335 Y115.436 E0.06959
G1 X93.945 Y112.951 E0.13176
G1 X93.133 Y111.994 E0.03935
G1 X91.793 Y109.794 E0.08079
G1 X90.847 Y106.778 E0.09910
G1 X90.671 Y104.736 E0.06428
G1 X90.760 Y103.309 E0.04483
G1 X90.871 Y102.767 E0.01733
G1 X91.996 Y99.333 E0.11330
G1 X92.785 Y97.984 E0.04901
G1 X94.290 Y96.219 E0.07272
G1 X94.575 Y96.463 F10800.000
G1 F1200.000
G1 X96.525 Y94.954 E0.07731
G1 X98.540 Y93.960 E0.07046
G1 X100.169 Y93.483 E0.05321
G1 X104.355 Y93.403 E0.13127
G1 X125.454 Y94.591 E0.66258
G1 X127.698 Y94.930 E0.07118
G1 X129.634 Y95.662 E0.06489
G1 X131.223 Y96.634 E0.05840
G1 X132.708 Y97.979 E0.06281
G1 X133.932 Y99.626 E0.06435
G1 X134.912 Y101.765 E0.07377
G1 X135.346 Y103.702 E0.06221
G1 X135.406 Y105.659 E0.06139
G1 X135.102 Y107.585 E0.06115
G1 X134.393 Y109.519 E0.06459
G1 X133.432 Y111.133 E0.05888
G1 X131.879 Y112.815 E0.07178
G1 X129.955 Y114.167 E0.07372
G1 X128.333 Y114.879 E0.05554
G1 X126.480 Y115.320 E0.05973
G1 X103.250 Y116.251 E0.72894
G1 X101.133 Y116.180 E0.06643
G1 X99.283 Y115.799 E0.05923
G1 X97.535 Y115.115 E0.05885
G1 X94.217 Y112.690 E0.12884
G1 X93.446 Y111.783 E0.03732
G1 X92.133 Y109.630 E0.07908
G1 X91.221 Y106.732 E0.09528
G1 X91.048 Y104.747 E0.06246
G1 X91.232 Y102.879 E0.05887
G1 X92.344 Y99.476 E0.11224
G1 X93.097 Y98.195 E0.04660
G1 X94.536 Y96.509 E0.06950
G1 F8640.000
G1 X96.525 Y94.954 E-0.58287
G1 X98.540 Y93.960 E-0.51886
G1 X99.489 Y93.682 E-0.22827
G1 E-0.07000 F2100.00000
G1 Z0.400 F10800.000
G1 X118.329 Y103.072
G1 Z0.200
G1 E1.40000 F2100.00000
G1 F1200.000
G1 X118.798 Y101.875 E0.04030
G1 X119.485 Y100.778 E0.04059
G1 X120.365 Y99.828 E0.04059
G1 X121.405 Y99.057 E0.04059
G1 X122.570 Y98.493 E0.04059
G1 X123.815 Y98.156 E0.04046
G1 X125.274 Y98.063 E0.04583
G1 X126.825 Y98.297 E0.04919
G1 X128.030 Y98.748 E0.04033
G1 X129.138 Y99.418 E0.04059
G1 X130.102 Y100.283 E0.04059
G1 X130.883 Y101.303 E0.04030
G1 X131.618 Y102.883 E0.05463
G1 X131.895 Y104.138 E0.04030
G1 X131.936 Y105.432 E0.04059
G1 X131.735 Y106.711 E0.04059
G1 X131.301 Y107.930 E0.04059
G1 X130.648 Y109.048 E0.04059
G1 X129.804 Y110.018 E0.04030
G1 X128.405 Y111.056 E0.05463
G1 X127.231 Y111.580 E0.04030
G1 X125.971 Y111.879 E0.04059
G1 X124.678 Y111.939 E0.04059
G1 X123.396 Y111.759 E0.04059
G1 X122.179 Y111.346 E0.04030
G1 X120.688 Y110.444 E0.05463
G1 X119.759 Y109.557 E0.04030
G1 X119.004 Y108.505 E0.04059
G1 X118.458 Y107.331 E0.04059
G1 X118.139 Y106.076 E0.04059
G1 X118.059 Y104.793 E0.04030
G1 X118.320 Y103.131 E0.05274
G1 X117.947 Y103.073 F10800.000
G1 F1200.000
G1 X117.963 Y102.973 E0.00317
G1 X118.460 Y101.705 E0.04270
G1 X119.185 Y100.548 E0.04280
G1 X120.112 Y99.546 E0.04280
G1 X121.209 Y98.733 E0.04280
G1 X122.437 Y98.138 E0.04280
G1 X123.754 Y97.782 E0.04276
G1 X125.291 Y97.684 E0.04829
G1 X126.921 Y97.930 E0.05169
G1 X128.195 Y98.407 E0.04267
G1 X129.363 Y99.114 E0.04280
G1 X130.380 Y100.025 E0.04280
G1 X131.207 Y101.107 E0.04270
G1 X131.977 Y102.761 E0.05721
G1 X132.271 Y104.091 E0.04270
G1 X132.314 Y105.455 E0.04280
G1 X132.102 Y106.804 E0.04280
G1 X131.644 Y108.090 E0.04280
G1 X130.955 Y109.269 E0.04280
G1 X130.062 Y110.297 E0.04270
G1 X128.596 Y111.383 E0.05721
G1 X127.352 Y111.938 E0.04270
G1 X126.024 Y112.254 E0.04280
G1 X124.661 Y112.318 E0.04280
G1 X123.309 Y112.127 E0.04280
G1 X122.019 Y111.690 E0.04270
G1 X120.458 Y110.745 E0.05721
G1 X119.473 Y109.805 E0.04270
G1 X118.677 Y108.696 E0.04280
G1 X118.101 Y107.458 E0.04280
G1 X117.765 Y106.135 E0.04280
G1 X117.680 Y104.775 E0.04270
G1 X117.938 Y103.132 E0.05215
G1 X118.041 Y103.033 F10800.000
G1 F8640.000
G1 X117.963 Y102.973 E-0.03723
G1 X118.460 Y101.705 E-0.31446
G1 X119.185 Y100.548 E-0.31522
G1 X120.112 Y99.546 E-0.31522
G1 X121.209 Y98.733 E-0.31522
G1 X121.336 Y98.672 E-0.03265
G1 E-0.07000 F2100.00000
G1 Z0.400 F10800.000
G1 X130.791 Y101.375
G1 Z0.200
G1 E1.40000 F2100.00000
G1 F1200.000
G1 X129.881 Y100.465 E0.04067
G1 X128.969 Y99.646 E0.03874
G1 X127.868 Y98.989 E0.04051
G1 X130.909 Y102.030 E0.13590
G1 X131.357 Y103.016 E0.03423
G1 X127.010 Y98.668 E0.19432
G1 X126.754 Y98.573 E0.00862
G1 X126.309 Y98.505 E0.01421
G1 X131.510 Y103.706 E0.23244
G1 X131.613 Y104.173 E0.01511
G1 X131.619 Y104.353 E0.00567
G1 X125.676 Y98.410 E0.26561
G1 X125.262 Y98.347 E0.01323
G1 X125.087 Y98.358 E0.00554
G1 X131.636 Y104.907 E0.29270
G1 X131.646 Y105.454 E0.01729
G1 X124.582 Y98.390 E0.31571
G1 X124.076 Y98.422 E0.01600
G1 X131.573 Y105.919 E0.33504
G1 X131.500 Y106.384 E0.01486
G1 X123.618 Y98.502 E0.35225
G1 X123.196 Y98.617 E0.01385
G1 X131.397 Y106.818 E0.36653
G1 X131.256 Y107.214 E0.01330
G1 X122.773 Y98.731 E0.37913
G1 X122.669 Y98.759 E0.00338
G1 X122.396 Y98.892 E0.00961
G1 X131.114 Y107.610 E0.38967
G1 X131.043 Y107.811 E0.00672
G1 X130.945 Y107.978 E0.00615
G1 X122.033 Y99.067 E0.39828
G1 X121.671 Y99.242 E0.01272
G1 X130.747 Y108.318 E0.40560
G1 X130.549 Y108.657 E0.01242
G1 X121.345 Y99.453 E0.41133
G1 X121.036 Y99.682 E0.01214
G1 X130.333 Y108.979 E0.41550
G1 X130.083 Y109.267 E0.01204
G1 X120.728 Y99.911 E0.41812
G1 X120.554 Y100.039 E0.00682
G1 X120.441 Y100.162 E0.00527
G1 X129.833 Y109.554 E0.41977
G1 X129.577 Y109.835 E0.01202
G1 X120.183 Y100.441 E0.41985
G1 X119.924 Y100.720 E0.01202
G1 X129.268 Y110.064 E0.41759
G1 X128.959 Y110.293 E0.01214
G1 X119.675 Y101.008 E0.41494
G1 X119.468 Y101.339 E0.01232
G1 X128.650 Y110.521 E0.41040
G1 X128.342 Y110.750 E0.01214
G1 X119.261 Y101.669 E0.40585
G1 X119.054 Y102.000 E0.01232
G1 X127.987 Y110.932 E0.39923
G1 X127.615 Y111.098 E0.01286
G1 X118.902 Y102.385 E0.38941
G1 X118.751 Y102.771 E0.01311
G1 X127.243 Y111.264 E0.37957
G1 X127.140 Y111.311 E0.00359
G1 X126.827 Y111.385 E0.01017
G1 X118.602 Y103.160 E0.36759
G1 X118.529 Y103.625 E0.01486
G1 X126.392 Y111.488 E0.35144
G1 X125.958 Y111.591 E0.01411
G1 X118.456 Y104.089 E0.33529
G1 X118.383 Y104.554 E0.01486
G1 X125.449 Y111.620 E0.31581
G1 X124.936 Y111.644 E0.01625
G1 X118.360 Y105.068 E0.29390
G1 X118.395 Y105.641 E0.01815
G1 X124.363 Y111.609 E0.26672
G1 X123.738 Y111.521 E0.01997
G1 X118.478 Y106.261 E0.23507
G1 X118.661 Y106.982 E0.02350
G1 X123.008 Y111.328 E0.19425
G1 X122.299 Y111.088 E0.02365
G1 X122.125 Y110.983 E0.00644
G1 X119.029 Y107.887 E0.13835
G1 X119.249 Y108.361 E0.01653
G1 X119.969 Y109.365 E0.03903
G1 X121.265 Y110.661 E0.05793
G1 F8640.000
G1 X119.969 Y109.365 E-0.42325
G1 X119.249 Y108.361 E-0.28515
G1 X119.029 Y107.887 E-0.12076
G1 X120.563 Y109.421 E-0.50085
G1 E-0.07000 F2100.00000
G1 Z0.400 F10800.000
G1 X104.646 Y109.830
G1 Z0.200
G1 E1.40000 F2100.00000
G1 F1200.000
G1 X102.893 Y110.226 E0.05637
G1 X101.807 Y110.180 E0.03407
G1 X100.945 Y109.924 E0.02821
G1 X100.076 Y109.492 E0.03040
G1 X99.216 Y108.832 E0.03399
G1 X98.578 Y108.107 E0.03030
G1 X98.082 Y107.273 E0.03042
G1 X97.734 Y106.284 E0.03286
G1 X97.600 Y105.317 E0.03062
G1 X97.666 Y104.286 E0.03240
G1 X97.886 Y103.448 E0.02717
G1 X98.245 Y102.675 E0.02672
G1 X98.948 Y101.685 E0.03809
G1 X99.565 Y101.078 E0.02713
G1 X100.453 Y100.505 E0.03314
G1 X101.465 Y100.136 E0.03376
G1 X102.328 Y100.012 E0.02733
G1 X103.317 Y100.064 E0.03107
G1 X104.418 Y100.379 E0.03589
G1 X105.215 Y100.810 E0.02840
G1 X106.147 Y101.565 E0.03762
G1 X107.148 Y102.951 E0.05361
G1 X107.473 Y103.841 E0.02971
G1 X107.632 Y104.902 E0.03363
G1 X107.555 Y106.026 E0.03533
G1 X107.304 Y106.929 E0.02938
G1 X106.896 Y107.770 E0.02932
G1 X106.298 Y108.580 E0.03158
G1 X105.559 Y109.263 E0.03153
G1 X104.697 Y109.798 E0.03182
G1 X104.501 Y109.476 F10800.000
G1 F1200.000
G1 X102.858 Y109.847 E0.05281
G1 X101.870 Y109.805 E0.03103
G1 X101.083 Y109.572 E0.02572
G1 X100.277 Y109.171 E0.02824
G1 X99.475 Y108.556 E0.03169
G1 X98.884 Y107.884 E0.02804
G1 X98.426 Y107.112 E0.02815
G1 X98.103 Y106.195 E0.03050
G1 X97.979 Y105.303 E0.02823
G1 X98.040 Y104.346 E0.03006
G1 X98.243 Y103.576 E0.02497
G1 X98.572 Y102.865 E0.02458
G1 X99.237 Y101.930 E0.03596
G1 X99.802 Y101.374 E0.02487
G1 X100.622 Y100.845 E0.03060
G1 X101.557 Y100.504 E0.03121
G1 X102.345 Y100.391 E0.02494
G1 X103.255 Y100.438 E0.02857
G1 X104.275 Y100.730 E0.03326
G1 X105.004 Y101.125 E0.02602
G1 X105.870 Y101.826 E0.03495
G1 X106.812 Y103.129 E0.05040
G1 X107.106 Y103.935 E0.02688
G1 X107.253 Y104.917 E0.03115
G1 X107.181 Y105.962 E0.03284
G1 X106.950 Y106.795 E0.02711
G1 X106.572 Y107.574 E0.02716
G1 X106.016 Y108.328 E0.02936
G1 X105.330 Y108.961 E0.02928
G1 X104.552 Y109.445 E0.02870
G1 X104.438 Y109.871 F10800.000
G1 F8640.000
G1 X102.858 Y109.847 E-0.40203
G1 X101.870 Y109.805 E-0.22851
G1 X101.083 Y109.572 E-0.18941
G1 X100.277 Y109.171 E-0.20794
G1 X99.475 Y108.556 E-0.23340
G1 X99.278 Y108.332 E-0.06872
G1 E-0.07000 F2100.00000
G1 Z0.400 F10800.000
G1 X107.827 Y110.161
G1 Z0.200
G1 E1.40000 F2100.00000
G1 F1200.000
G1 X106.669 Y110.669 E0.03964
G1 X105.978 Y111.700 E0.03893
G1 X105.929 Y112.207 E0.01595
G1 X105.155 Y112.523 E0.02621
G1 X103.700 Y112.861 E0.04685
G1 X101.699 Y112.892 E0.06274
G1 X99.739 Y112.435 E0.06311
G1 X99.180 Y112.197 E0.01905
G1 X99.051 Y111.418 E0.02477
G1 X98.208 Y110.477 E0.03962
G1 X97.025 Y110.141 E0.03853
G1 X96.527 Y110.251 E0.01601
G1 X95.863 Y109.447 E0.03268
G1 X95.120 Y108.145 E0.04701
G1 X94.625 Y106.723 E0.04719
G1 X94.445 Y105.751 E0.03102
G1 X94.384 Y104.757 E0.03121
G1 X94.448 Y103.852 E0.02844
G1 X94.917 Y103.648 E0.01603
G1 X95.679 Y102.684 E0.03853
G1 X95.811 Y101.427 E0.03963
G1 X95.464 Y100.730 E0.02441
G1 X96.160 Y99.664 E0.03994
G1 X97.193 Y98.582 E0.04690
G1 X98.406 Y97.707 E0.04691
G1 X99.766 Y97.063 E0.04719
G1 X100.691 Y96.787 E0.03025
G1 X100.951 Y96.765 E0.00818
G1 X101.505 Y97.294 E0.02402
G1 X102.735 Y97.560 E0.03943
G1 X103.889 Y97.138 E0.03854
G1 X104.239 Y96.745 E0.01650
G1 X105.605 Y97.152 E0.04470
G1 X107.362 Y98.118 E0.06285
G1 X108.830 Y99.478 E0.06274
G1 X109.695 Y100.717 E0.04736
G1 X109.336 Y101.434 E0.02517
G1 X109.461 Y102.680 E0.03924
G1 X110.226 Y103.657 E0.03891
G1 X110.678 Y103.855 E0.01547
G1 X110.722 Y105.510 E0.05192
G1 X110.451 Y106.973 E0.04666
G1 X109.916 Y108.370 E0.04691
G1 X109.131 Y109.653 E0.04716
G1 X108.598 Y110.279 E0.02576
G1 X107.886 Y110.170 E0.02259
G1 X107.878 Y110.550 F10800.000
G1 F1200.000
G1 X106.921 Y110.970 E0.03276
G1 X106.344 Y111.831 E0.03250
G1 X106.283 Y112.470 E0.02011
G1 X105.270 Y112.883 E0.03430
G1 X103.746 Y113.238 E0.04906
G1 X101.659 Y113.270 E0.06546
G1 X99.621 Y112.795 E0.06559
G1 X98.842 Y112.463 E0.02658
G1 X98.697 Y111.588 E0.02781
G1 X98.000 Y110.810 E0.03275
G1 X97.014 Y110.530 E0.03214
G1 X96.383 Y110.668 E0.02025
G1 X95.552 Y109.662 E0.04092
G1 X94.775 Y108.301 E0.04911
G1 X94.259 Y106.820 E0.04918
G1 X94.070 Y105.797 E0.03264
G1 X94.006 Y104.755 E0.03271
G1 X94.088 Y103.598 E0.03639
G1 X94.680 Y103.340 E0.02023
G1 X95.315 Y102.536 E0.03214
G1 X95.425 Y101.497 E0.03276
G1 X95.030 Y100.705 E0.02774
G1 X95.863 Y99.429 E0.04781
G1 X96.945 Y98.297 E0.04907
G1 X98.214 Y97.381 E0.04908
G1 X99.631 Y96.709 E0.04918
G1 X100.621 Y96.414 E0.03238
G1 X101.089 Y96.375 E0.01472
G1 X101.689 Y96.948 E0.02601
G1 X102.708 Y97.168 E0.03268
G1 X103.670 Y96.816 E0.03214
G1 X104.107 Y96.326 E0.02058
G1 X105.752 Y96.802 E0.05369
G1 X107.584 Y97.810 E0.06557
G1 X109.115 Y99.229 E0.06546
G1 X110.016 Y100.518 E0.04929
G1 X110.122 Y100.706 E0.00678
G1 X109.722 Y101.505 E0.02801
G1 X109.826 Y102.533 E0.03239
G1 X110.464 Y103.350 E0.03250
G1 X111.048 Y103.605 E0.01999
G1 X111.100 Y105.540 E0.06068
G1 X110.815 Y107.076 E0.04899
G1 X110.255 Y108.537 E0.04908
G1 X109.437 Y109.875 E0.04917
G1 X108.749 Y110.683 E0.03328
G1 X107.937 Y110.559 E0.02575
G1 X107.556 Y110.313 F10800.000
G1 F8640.000
G1 X106.921 Y110.970 E-0.25307
G1 X106.344 Y111.831 E-0.23933
G1 X106.283 Y112.470 E-0.14810
G1 X105.270 Y112.883 E-0.25259
G1 X103.746 Y113.238 E-0.36126
G1 X103.419 Y113.243 E-0.07565
G1 E-0.07000 F2100.00000
G1 Z0.400 F10800.000
G1 X102.709 Y112.763
G1 Z0.200
G1 E1.40000 F2100.00000
G1 F1200.000
G1 X94.670 Y104.724 E0.36288
G1 X94.700 Y105.298 E0.01833
G1 X102.007 Y112.604 E0.32982
G1 X101.730 Y112.609 E0.00885
G1 X101.389 Y112.529 E0.01117
G1 X94.760 Y105.900 E0.29924
G1 X94.883 Y106.566 E0.02162
G1 X100.681 Y112.365 E0.26173
G1 X99.974 Y112.200 E0.02319
G1 X99.367 Y111.593 E0.02739
G1 X99.317 Y111.290 E0.00979
G1 X98.364 Y110.227 E0.04558
G1 X97.857 Y110.083 E0.01681
G1 X95.153 Y107.379 E0.12208
G1 X95.379 Y108.027 E0.02191
G1 X95.539 Y108.308 E0.01033
G1 X97.345 Y110.114 E0.08154
G1 F8640.000
G1 X95.539 Y108.308 E-0.58987
G1 X95.379 Y108.027 E-0.07472
G1 X95.153 Y107.379 E-0.15851
G1 X96.705 Y108.931 E-0.50690
G1 E-0.07000 F2100.00000
G1 Z0.400 F10800.000
G1 X102.153 Y97.550
G1 Z0.200
G1 E1.40000 F2100.00000
G1 F1200.000
G1 X104.946 Y100.343 E0.12607
G1 X104.525 Y100.115 E0.01526
G1 X104.035 Y99.975 E0.01626
G1 X101.681 Y97.621 E0.10626
G1 X101.368 Y97.554 E0.01024
G1 X100.848 Y97.058 E0.02294
G1 X100.620 Y97.103 E0.00741
G1 X103.297 Y99.780 E0.12083
G1 X102.724 Y99.750 E0.01831
G1 X100.202 Y97.228 E0.11384
G1 X99.868 Y97.327 E0.01113
G1 X99.794 Y97.363 E0.00262
G1 X102.179 Y99.748 E0.10767
G1 X101.704 Y99.816 E0.01531
G1 X99.425 Y97.537 E0.10287
G1 X99.057 Y97.711 E0.01301
G1 X101.257 Y99.911 E0.09929
G1 X100.859 Y100.056 E0.01352
G1 X98.689 Y97.886 E0.09796
G1 X98.551 Y97.951 E0.00487
G1 X98.353 Y98.094 E0.00776
G1 X100.461 Y100.201 E0.09513
G1 X100.327 Y100.250 E0.00456
G1 X100.108 Y100.391 E0.00831
G1 X98.038 Y98.321 E0.09343
G1 X97.723 Y98.549 E0.01241
G1 X99.778 Y100.604 E0.09277
G1 X99.448 Y100.817 E0.01254
G1 X97.408 Y98.776 E0.09210
G1 X97.138 Y99.050 E0.01225
G1 X99.164 Y101.076 E0.09145
G1 X98.890 Y101.345 E0.01225
G1 X96.873 Y99.327 E0.09107
G1 X96.608 Y99.605 E0.01226
G1 X98.637 Y101.634 E0.09161
G1 X98.412 Y101.952 E0.01243
G1 X96.350 Y99.890 E0.09306
G1 X96.136 Y100.219 E0.01252
G1 X98.186 Y102.269 E0.09256
G1 X97.970 Y102.596 E0.01250
G1 X95.921 Y100.547 E0.09248
G1 X95.789 Y100.749 E0.00771
G1 X95.997 Y101.166 E0.01486
